dev-utils/pieces/svg/fairy/compressed/archbishopsW.svg

<svg xmlns="http://www.w3.org/2000/svg" viewBox="0 0 45 45"><g fill="#FFF" stroke="#000" stroke-width="1.5" stroke-linejoin="round"><path d="M16 32c4.5 2.5 14.5 2.5 18 0 .5.5 0-2 0-2 0-2.5-3.5-4-3.5-4 5.5-1.5 6-14.5-9-19.5-7 8-6.5 18-1 19.5 0 0-4.5 1.5-4.5 4 0 0-.5.5 0 2Z"/><path d="M9 36c3.39-.97 10.11.43 16.5-2 2.39 2.43 7.11 1.03 10.5 2 0 0 1.65.54 3 2-.68.97-1.65.99-3 .5-3.39-.97-9.11.46-11.5-1-5.39 1.46-12.11.03-15.5 1-1.354.49-2.323.47-3-.5 1.354-1.94 3-2 3-2Z"/></g><path d="M22.459 14.205c-.118 2.638-6.071 5.665-8.497 6.726-2.972 1.304-3.178 3.406-5.057 2.764-.777-.996 1.725-2.474.469-2.659-.887-.156-.024 1.12-1.2 1.617-.886-.157-3.703.26-2.92-4.17.313-1.773 7.194-9.699 7.194-9.699s1.972-1.389 2.32-2.79c-.492-.995-.131-1.85.025-2.737 1.043-.73 2.269 2.685 2.269 2.685l1.772.313s1.003-1.644 2.685-2.269c.886.157.417 2.816.417 2.816" fill="#FFF" stroke="#000" stroke-width="1.4994" stroke-linecap="round" stroke-linejoin="round"/><g fill="none" stroke="#000" stroke-width="1.5" stroke-linecap="round"><path d="M20.5 26h10M16 30h18M27.5 15l-1 7m-2-4.5h5"/></g><g stroke="#000" stroke-width="1.5" stroke-linejoin="round"><path d="M8.435 18.586a.45.45 0 1 1-.886-.156.45.45 0 1 1 .886.156ZM15.297 9.47a.45 1.35 40 1 1-1.736 2.07.45 1.35 40 1 1 1.736-2.07Z" stroke-width="1.35"/></g></svg>

<?xml version="1.0" encoding="UTF-8" standalone="no"?>
<!--
	Lovag (fehér)
	Készült: bishop-w.svg és knight-w.svg felhasználásával
	Felhasználási feltételek: Nevezd meg! - Így add tovább! (Creative Commons)
	Uray M. János
	2013-2018
-->
<!DOCTYPE svg PUBLIC "-//W3C//DTD SVG 1.1//EN" "http://www.w3.org/Graphics/SVG/1.1/DTD/svg11.dtd">
<svg xmlns="http://www.w3.org/2000/svg" version="1.1" width="128" height="128" viewBox="0 0 45 45">
	<!-- futó: alap -->
	<g fill="#FFF" stroke="#000" stroke-width="1.5" stroke-linejoin="round">
		<!-- test -->
		<path d="M 16,32 C 20.5,34.5 30.5,34.5 34,32 C 34.5,32.5 34,30 34,30 C 34,27.5 30.5,26 30.5,26 C 36,24.5 36.5,11.5 21.5,6.5 C 14.5,14.5 15,24.5 20.5,26 C 20.5,26 16,27.5 16,30 C 16,30 15.5,30.5 16,32 Z"/>
		<!-- talp -->
		<path d="M 9,36 C 12.39,35.03 19.11,36.43 25.5,34 C 27.89,36.43 32.61,35.03 36,36 C 36,36 37.65,36.54 39,38 C 38.32,38.97 37.35,38.99 36,38.5 C 32.61,37.53 26.89,38.96 24.5,37.5 C 19.11,38.96 12.39,37.53 9,38.5 C 7.646,38.99 6.677,38.97 6,38 C 7.354,36.06 9,36 9,36 Z"/>
	</g>
	<!-- huszár: fej -->
	<g transform="translate(+4, -5.5) scale(0.9) rotate(10)" fill="#FFF" stroke="#000" stroke-width="1.666" stroke-linecap="round" stroke-linejoin="round">
		<path d="M 24,18 C 24.38,20.91 18.45,25.37 16,27 C 13,29 13.18,31.34 11,31 C 9.958,30.06 12.41,27.96 11,28 C 10,28 11.19,29.23 10,30 C 9,30 5.997,31 6,26 C 6,24 12,14 12,14 C 12,14 13.89,12.1 14,10.5 C 13.27,9.506 13.5,8.5 13.5,7.5 C 14.5,6.5 16.5,10 16.5,10 L 18.5,10 C 18.5,10 19.28,8.008 21,7 C 22,7 22,10 22,10"/>
	</g>
	<!-- futó: vonalak -->
	<g fill="none" stroke="#000" stroke-width="1.5" stroke-linecap="round">
		<path d="M 20.5,26 L 30.5,26"/>
		<path d="M 16.0,30 L 34.0,30"/>
		<!-- kereszt -->
		<path d="M 27.5,15 L 26.5,22 M 24.5,17.5 L 29.5,17.5"/>
	</g>
	<!-- huszár: vonalak -->
	<g transform="translate(+4, -5.5) scale(0.9) rotate(10)" fill="#000" stroke="#000" stroke-width="1.5" stroke-linejoin="round">
		<!-- orr -->
		<path d="M 9.5 25.5 A 0.5,0.5,0 1,1 8.5,25.5 A 0.5,0.5,0 1,1 9.5,25.5 Z"/>
		<!-- szem -->
		<path d="M 15.25 14.2 A 0.5,1.5,30 1,1 13.75,16.8 A 0.5,1.5,30 1,1 15.25,14.2 Z"/>
	</g>
</svg>
